dist/images/badges/steam.svg

<?xml version="1.0" encoding="UTF-8" standalone="no"?>
<svg width="130px" height="142px" viewBox="0 0 130 142" version="1.1" xmlns="http://www.w3.org/2000/svg" xmlns:xlink="http://www.w3.org/1999/xlink">
    <!-- Generator: Sketch 3.8.3 (29802) - http://www.bohemiancoding.com/sketch -->
    <title>Group</title>
    <desc>Created with Sketch.</desc>
    <defs>
        <linearGradient x1="13.2176142%" y1="26.8298778%" x2="66.1613638%" y2="50%" id="linearGradient-1">
            <stop stop-color="#184353" offset="0%"></stop>
            <stop stop-color="#1A293A" offset="100%"></stop>
        </linearGradient>
        <polygon id="path-2" points="75.0431159 15.1879024 124.575423 43.7853933 124.575423 100.980375 75.0431159 129.577866 25.5108087 100.980375 25.5108087 43.7853933"></polygon>
        <filter x="-50%" y="-50%" width="200%" height="200%" filterUnits="objectBoundingBox" id="filter-3">
            <feOffset dx="7" dy="0" in="SourceAlpha" result="shadowOffsetOuter1"></feOffset>
            <feGaussianBlur stdDeviation="7.5" in="shadowOffsetOuter1" result="shadowBlurOuter1"></feGaussianBlur>
            <feColorMatrix values="0 0 0 0 0   0 0 0 0 0   0 0 0 0 0  0 0 0 0.75 0" type="matrix" in="shadowBlurOuter1"></feColorMatrix>
        </filter>
        <linearGradient x1="6.69872984%" y1="0%" x2="6.69872981%" y2="75%" id="linearGradient-4">
            <stop stop-color="#A8A8A8" offset="0%"></stop>
            <stop stop-color="#393939" offset="100%"></stop>
        </linearGradient>
    </defs>
    <g id="Page-1" stroke="none" stroke-width="1" fill="none" fill-rule="evenodd">
        <g id="Steam-Badge" transform="translate(-13.000000, -7.934082)">
            <g id="Group">
                <g id="Hex" transform="translate(75.043116, 72.382884) rotate(-300.000000) translate(-75.043116, -72.382884) ">
                    <use fill="black" fill-opacity="1" filter="url(#filter-3)" xlink:href="#path-2"></use>
                    <use fill="url(#linearGradient-1)" fill-rule="evenodd" xlink:href="#path-2"></use>
                </g>
                <g id="Steam-Logo" transform="translate(33.000000, 54.000000)" fill="#D8D8D8">
                    <path d="M8.10572687,19.7333333 C12.6472755,19.7333333 16.4464023,16.4045 16.4464023,11.8634921 C16.4464023,7.32248412 12.7647498,3.64126984 8.22320117,3.64126984 C3.68165257,3.64126984 0,7.32248412 0,11.8634921 C0,16.4045 3.56417827,19.7333333 8.10572687,19.7333333 Z M8.13257814,17.8539683 C11.6360585,17.8539683 14.5668135,15.2783746 14.5668135,11.764894 C14.5668135,8.25141339 11.7266815,5.4031746 8.22320117,5.4031746 C4.71972082,5.4031746 1.87958884,8.25141339 1.87958884,11.764894 C1.87958884,15.2783746 4.62909779,17.8539683 8.13257814,17.8539683 Z" id="Oval-1"></path>
                    <path d="M50.5139501,37 C55.0554987,37 58.8546256,33.6711667 58.8546256,29.1301587 C58.8546256,24.5891508 55.172973,20.9079365 50.6314244,20.9079365 C46.0898758,20.9079365 42.4082232,24.5891508 42.4082232,29.1301587 C42.4082232,33.6711667 45.9724015,37 50.5139501,37 Z M50.5408013,35.1206349 C54.0442817,35.1206349 56.9750367,32.5450413 56.9750367,29.0315607 C56.9750367,25.5180801 54.1349047,22.6698413 50.6314244,22.6698413 C47.127944,22.6698413 44.287812,25.5180801 44.287812,29.0315607 C44.287812,32.5450413 47.037321,35.1206349 50.5408013,35.1206349 Z" id="Oval-2"></path>
                    <path d="M68.9574156,22.0825397 C75.0560665,22.0825397 80,17.1391948 80,11.0412698 C80,4.94334489 75.0560665,0 68.9574156,0 C62.8587646,0 57.9148311,4.94334489 57.9148311,11.0412698 C57.9148311,17.1391948 62.8587646,22.0825397 68.9574156,22.0825397 Z M68.9574156,18.5587302 C73.1096886,18.5587302 76.4757709,15.1930485 76.4757709,11.0412698 C76.4757709,6.88949115 73.1096886,3.52380952 68.9574156,3.52380952 C64.8051426,3.52380952 61.4390602,6.88949115 61.4390602,11.0412698 C61.4390602,15.1930485 64.8051426,18.5587302 68.9574156,18.5587302 Z" id="Oval-5"></path>
                    <ellipse id="Oval-7" cx="69.0161527" cy="10.9825397" rx="6.04992658" ry="6.04920635"></ellipse>
                    <path d="M51.9616107,22.2118568 L51.101765,21.2993956 L58.118336,11.3984246 L69.5488586,21.6905134 L58.8083356,29.4775451 L57.86269,28.4740337 C57.8910142,28.2136757 57.9056533,27.9477526 57.9056533,27.6774783 C57.9056533,24.4987728 55.8807443,21.9219228 53.3828926,21.9219228 C52.8863823,21.9219228 52.4085587,22.0237379 51.9616107,22.2118568 Z" id="Rectangle-18"></path>
                    <rect id="Rectangle-17" transform="translate(29.479222, 20.325659) rotate(22.000000) translate(-29.479222, -20.325659) " x="1.60478219" y="15.5359265" width="55.7488792" height="9.57946556" rx="4.78973278"></rect>
                </g>
                <path d="M75.0431159,129.627046 L74.4577264,129.96502 L24.9254192,101.36753 L24.9254192,44.1725479 L25.1605645,44.0367867 L75.0431159,72.8364912 L75.0431159,129.627046 Z" id="Hex-Shade-Bottom-Left" fill="url(#linearGradient-4)" opacity="0.229477612"></path>
                <path d="M125.160813,100.364497 L124.575423,100.702472 L75.0431159,72.1049808 L75.0431159,14.9099991 L75.2782612,14.7742379 L125.160813,43.5739424 L125.160813,100.364497 Z" id="Hex-Shade-Top-Right" fill="#FFFFFF" opacity="0.0269939366"></path>
            </g>
        </g>
    </g>
</svg>

<svg width="130" height="142" viewBox="0 0 130 142" xmlns="http://www.w3.org/2000/svg" xmlns:xlink="http://www.w3.org/1999/xlink"><title>Group</title><defs><linearGradient x1="13.218%" y1="26.83%" x2="66.161%" y2="50%" id="linearGradient-1"><stop stop-color="#184353" offset="0%"/><stop stop-color="#1A293A" offset="100%"/></linearGradient><path id="path-2" d="M75.043 15.188l49.532 28.597v57.195l-49.532 28.598-49.532-28.598V43.785z"/><filter x="-50%" y="-50%" width="200%" height="200%" filterUnits="objectBoundingBox" id="filter-3"><feOffset dx="7" in="SourceAlpha" result="shadowOffsetOuter1"/><feGaussianBlur stdDeviation="7.5" in="shadowOffsetOuter1" result="shadowBlurOuter1"/><feColorMatrix values="0 0 0 0 0 0 0 0 0 0 0 0 0 0 0 0 0 0 0.75 0" in="shadowBlurOuter1"/></filter><linearGradient x1="6.699%" y1="0%" x2="6.699%" y2="75%" id="linearGradient-4"><stop stop-color="#A8A8A8" offset="0%"/><stop stop-color="#393939" offset="100%"/></linearGradient></defs><g id="Page-1" fill="none" fill-rule="evenodd"><g id="Steam-Badge" transform="translate(-13 -7.934)"><g id="Group"><g id="Hex" transform="rotate(60 75.043 72.383)"><use fill="#000" filter="url(#filter-3)" xlink:href="#path-2"/><use fill="url(#linearGradient-1)" xlink:href="#path-2"/></g><g id="Steam-Logo" transform="translate(33 54)" fill="#D8D8D8"><path d="M8.106 19.733c4.541 0 8.34-3.329 8.34-7.87a8.223 8.223 0 0 0-8.223-8.222A8.223 8.223 0 0 0 0 11.863c0 4.541 3.564 7.87 8.106 7.87zm.027-1.879c3.503 0 6.434-2.576 6.434-6.09 0-3.513-2.84-6.36-6.344-6.36-3.503 0-6.343 2.847-6.343 6.36 0 3.514 2.75 6.09 6.253 6.09z" id="Oval-1"/><path d="M50.514 37c4.541 0 8.34-3.329 8.34-7.87a8.223 8.223 0 0 0-8.223-8.222 8.223 8.223 0 0 0-8.223 8.222c0 4.541 3.564 7.87 8.106 7.87zm.027-1.88c3.503 0 6.434-2.575 6.434-6.088 0-3.514-2.84-6.362-6.344-6.362-3.503 0-6.343 2.848-6.343 6.362 0 3.513 2.75 6.089 6.253 6.089z" id="Oval-2"/><path d="M68.957 22.083c6.1 0 11.043-4.944 11.043-11.042S75.056 0 68.957 0C62.86 0 57.915 4.943 57.915 11.041c0 6.098 4.944 11.042 11.042 11.042zm0-3.524a7.518 7.518 0 1 0-7.518-7.518 7.518 7.518 0 0 0 7.518 7.518z" id="Oval-5"/><ellipse id="Oval-7" cx="69.016" cy="10.983" rx="6.05" ry="6.049"/><path d="M51.962 22.212l-.86-.913 7.016-9.9 11.43 10.292-10.74 7.787-.945-1.004c.028-.26.043-.526.043-.797 0-3.178-2.025-5.755-4.523-5.755-.497 0-.974.102-1.421.29z" id="Rectangle-18"/><rect id="Rectangle-17" transform="rotate(22 29.48 20.326)" x="1.605" y="15.536" width="55.749" height="9.579" rx="4.79"/></g><path d="M75.043 129.627l-.585.338-49.533-28.597V44.173l.236-.136 49.882 28.8v56.79z" id="Hex-Shade-Bottom-Left" fill="url(#linearGradient-4)" opacity=".229"/><path d="M125.16 100.364l-.585.338-49.532-28.597V14.91l.235-.136 49.883 28.8v56.79z" id="Hex-Shade-Top-Right" fill="#FFF" opacity=".027"/></g></g></g></svg>
